X:1
T:Title
%%score { ( 1 3 ) | ( 2 4 ) }
L:1/8
M:4/4
K:C
V:1 treble nm="Grand Piano"
V:3 treble 
V:2 bass 
V:4 bass 
V:1
 z4 z2[Q:1/4=100] [G,CE]>[G,DF] | [CFA]2 [CEG]4 [G,CE]>[G,C] | [CFA]2 [CEG]4 [CEG]>[EGc] | %3
 B2 d2 A3 [FB] | [Ec]6 [CE]>[DF] | [FA]2 [EG]4 [Gc]>[GB] | d2 c4 B>A | G2 c2 d3 [Ec] | %8
[M:3/4] [Ec]6 |[M:1/4] G>c |[M:4/4] B6 z2 | c6 z2 | [Ge]2 [Ge]2 [Gc]2 [FB]>[Ec] | [Gd]8 | %14
 [Ge]<[Ge] [Ge]>[Gd] [Gc]2 [EG]2 | AA A>A c4 |[M:9/8] G c2 z Bd- d2 z |[M:3/4] [EGc]6 |] %18
V:2
 z4 z2 C,>C, | C,2 C,4 C,>C, | F,2 C,4 C,>C, | [G,DF]2 [G,B,F]2 [G,CF]3[K:bass] [G,,G,] | %4
 [C,G,]6 [C,G,]>[C,G,] | [C,C]2 [C,C]4 [E,C]>[E,C] | [F,A,F]2 [F,A,F]4 [F,CG]>[F,CF] | %7
 [G,CE]2 [G,EG]2 [G,B,F]3[K:bass] [C,C] |[M:3/4] [C,C]6 |[M:1/4] E>E |[M:4/4] D6[K:treble] z2 | %11
 E6[K:bass] z2 | [C,C]2 [C,C]2 [E,C]2 [D,G,]>[C,G,] | [G,B,]2 G,>G, G,3 [C,C] | %14
 [C,C]<[C,C] [C,C]>[D,B,] [E,C]2 [C,C]2 | [F,CF][F,CF] [F,CF]>[F,CF] [F,A,F]4 | %16
[M:9/8] [G,CE] [G,EG]2 z [G,DG][G,FG]- [G,FG]2 z |[M:3/4][K:bass] C,6 |] %18
V:3
 x8 | x8 | x8 | x8 | x8 | x8 | x8 | x8 |[M:3/4] x6 |[M:1/4] x2 |[M:4/4] z2 B,>B, B,2 G>d | %11
 z2 G,>G, G,2 [G,EG]>[Ec] | x8 | z2 B,>B, B,3 [Ec] | x8 | x8 |[M:9/8] x9 |[M:3/4] x6 |] %18
V:4
 x8 | x8 | x8 | x7[K:bass] x | x8 | x8 | x8 | x7[K:bass] x |[M:3/4] x6 |[M:1/4] x2 | %10
[M:4/4] z2 G,>G, G,2[K:treble] F>F | z2[K:bass] C,>C, C,2 C,>[C,G,] | x8 | x8 | x8 | x8 | %16
[M:9/8] x9 |[M:3/4][K:bass] x6 |] %18

